icons-common/eco.svg

<svg height="1em" width="auto" viewBox="0 0 105 105" fill="currentColor" xmlns="http://www.w3.org/2000/svg">
    <path d="M39.3688 77.2216C25.9268 69.3948 22.2569 55.5904 30.0234 42.0441C37.7899 28.4978 60.0653 19.6389 69.368 16.3276C70.0934 16.0695 70.9042 15.9405 71.715 16.0265C73.2939 16.1555 74.8302 17.0586 75.769 18.3918C76.1957 18.9938 76.5371 19.7679 76.6651 20.585C78.4574 30.3469 81.8285 54.5153 74.2327 67.8036C66.6369 81.0919 52.7682 85.0483 39.3688 77.2216ZM70.4348 28.8418C70.1361 26.4336 67.6611 25.0144 65.4421 25.9175C53.3656 30.906 40.905 38.1307 36.5097 45.8285C30.8342 55.7194 33.3092 65.0084 43.124 70.6849C52.9389 76.4045 62.1562 73.9102 67.7891 64.0193C72.1844 56.3645 72.1418 41.8291 70.4348 28.8418ZM71.9284 23.4233C71.9284 23.4233 71.9284 23.4233 71.8857 23.4233C71.8857 23.4233 71.8857 23.4233 71.9284 23.4233Z"
          />
    <path d="M56.1394 54.4292L40.009 84.7472C37.1926 89.8217 29.6821 85.4783 32.6266 80.4468L50.6346 51.2039C52.7683 47.7206 58.1024 50.8169 56.1821 54.4292H56.1394Z"
          />
</svg>

<svg xmlns="http://www.w3.org/2000/svg" width="auto" height="1em" fill="currentColor" viewBox="0 0 105 105">
    <path d="M39.369 77.222c-13.442-7.827-17.112-21.632-9.346-35.178C37.79 28.498 60.065 19.64 69.368 16.328a5.4 5.4 0 0 1 2.347-.302c1.579.13 3.115 1.033 4.054 2.366.427.602.768 1.376.896 2.193 1.792 9.762 5.163 33.93-2.432 47.219-7.596 13.288-21.465 17.244-34.864 9.418m31.066-48.38a3.633 3.633 0 0 0-4.993-2.924C53.366 30.906 40.905 38.13 36.51 45.828c-5.676 9.891-3.2 19.18 6.614 24.857 9.815 5.72 19.032 3.225 24.665-6.666 4.395-7.655 4.353-22.19 2.646-35.177m1.493-5.419h-.042z"/>
    <path d="M56.14 54.43 40.008 84.746c-2.816 5.075-10.327.731-7.382-4.3l18.008-29.243c2.133-3.483 7.467-.387 5.547 3.225z"/>
</svg>
